packages/core/src/Assets/SvgComponents/header/careers.svg

<svg width="24" height="24" viewBox="0 0 24 24" fill="none" xmlns="http://www.w3.org/2000/svg">
<path d="M19.7143 6H4.28571C3.57563 6 3 6.56664 3 7.26562V18.2344C3 18.9334 3.57563 19.5 4.28571 19.5H19.7143C20.4244 19.5 21 18.9334 21 18.2344V7.26562C21 6.56664 20.4244 6 19.7143 6ZM4.18421 6.75H19.8158C20.0556 6.75 20.25 6.94188 20.25 7.17857V18.3214C20.25 18.5581 20.0556 18.75 19.8158 18.75H4.18421C3.9444 18.75 3.75 18.5581 3.75 18.3214V7.17857C3.75 6.94188 3.9444 6.75 4.18421 6.75Z" fill="url(#paint0_linear)"/>
<path d="M14.1429 11.25H9.85714C9.38376 11.25 9 11.6697 9 12.1875V14.0625C9 14.5803 9.38376 15 9.85714 15H14.1429C14.6162 15 15 14.5803 15 14.0625V12.1875C15 11.6697 14.6162 11.25 14.1429 11.25ZM9.75 12H14.25V14.25H9.75V12Z" fill="url(#paint1_linear)"/>
<path d="M15.125 3.75C15.8397 3.75 16.4271 4.2854 16.4937 4.96999L16.5 5.1V6H15.5833V5.1C15.5833 4.87909 15.4212 4.69535 15.2074 4.65725L15.125 4.65H9.625C9.39999 4.65 9.21286 4.80919 9.17405 5.01911L9.16667 5.1V6H8.25V5.1C8.25 4.39827 8.79531 3.8216 9.49258 3.75618L9.625 3.75H15.125Z" fill="url(#paint2_linear)"/>
<path d="M19.7143 6C20.5677 6 21 6.6304 21 7.66667C21 8.48781 20.4317 10.0133 19.2917 12.3192C18.9571 12.9959 18.2764 13.4416 17.5138 13.4947L17.3603 13.5H14.5714V12.6667H17.3603C17.8546 12.6667 18.305 12.3912 18.5191 11.9582C19.6005 9.77094 20.1429 8.3151 20.1429 7.66667C20.1429 7.08129 20.0229 6.8645 19.774 6.83652L19.7143 6.83333H4.28571C4.01697 6.83333 3.87779 7.00831 3.85928 7.53804L3.858 7.59333L5.54878 11.8654C5.72507 12.311 6.14511 12.6167 6.62711 12.6611L6.7488 12.6667H9.42857V13.5H6.7488C5.9143 13.5 5.16092 13.0297 4.80981 12.3036L4.74877 12.1645L3.02857 7.81624L3 7.66667C3 6.68222 3.39013 6.06405 4.16086 6.0047L4.28571 6H19.7143Z" fill="url(#paint3_linear)"/>
<defs>
<linearGradient id="paint0_linear" x1="3" y1="16.5469" x2="18.165" y2="5.17312" gradientUnits="userSpaceOnUse">
<stop stop-color="#FF444F"/>
<stop offset="1" stop-color="#FF6444"/>
</linearGradient>
<linearGradient id="paint1_linear" x1="9" y1="13.8574" x2="13.973" y2="10.7493" gradientUnits="userSpaceOnUse">
<stop stop-color="#FF444F"/>
<stop offset="1" stop-color="#FF6444"/>
</linearGradient>
<linearGradient id="paint2_linear" x1="8.25" y1="4.95868" x2="15.9713" y2="2.85286" gradientUnits="userSpaceOnUse">
<stop stop-color="#FF444F"/>
<stop offset="1" stop-color="#FF6444"/>
</linearGradient>
<linearGradient id="paint3_linear" x1="3" y1="10.401" x2="18.7996" y2="3.81789" gradientUnits="userSpaceOnUse">
<stop stop-color="#FF444F"/>
<stop offset="1" stop-color="#FF6444"/>
</linearGradient>
</defs>
</svg>

<svg width="24" height="24" fill="none" xmlns="http://www.w3.org/2000/svg"><path d="M19.714 6H4.286C3.576 6 3 6.567 3 7.266v10.968c0 .7.576 1.266 1.286 1.266h15.428c.71 0 1.286-.567 1.286-1.266V7.266C21 6.566 20.424 6 19.714 6zm-15.53.75h15.632c.24 0 .434.192.434.429V18.32a.431.431 0 01-.434.429H4.184a.431.431 0 01-.434-.429V7.18c0-.237.194-.429.434-.429z" fill="url(#paint0_linear)"/><path d="M14.143 11.25H9.857c-.473 0-.857.42-.857.938v1.874c0 .518.384.938.857.938h4.286c.473 0 .857-.42.857-.938v-1.874c0-.518-.384-.938-.857-.938zM9.75 12h4.5v2.25h-4.5V12z" fill="url(#paint1_linear)"/><path d="M15.125 3.75c.715 0 1.302.535 1.369 1.22l.006.13V6h-.917v-.9a.452.452 0 00-.376-.443l-.082-.007h-5.5a.456.456 0 00-.451.37l-.007.08V6H8.25v-.9a1.36 1.36 0 011.243-1.344l.132-.006h5.5z" fill="url(#paint2_linear)"/><path d="M19.714 6C20.568 6 21 6.63 21 7.667c0 .82-.568 2.346-1.708 4.652a2.144 2.144 0 01-1.778 1.176l-.154.005h-2.789v-.833h2.79a1.29 1.29 0 001.158-.709c1.082-2.187 1.624-3.643 1.624-4.291 0-.586-.12-.803-.369-.83l-.06-.004H4.286c-.269 0-.408.175-.427.705l-.001.055 1.69 4.272c.177.446.597.752 1.08.796l.12.006h2.68v.833h-2.68c-.834 0-1.587-.47-1.938-1.196l-.061-.14-1.72-4.348L3 7.666c0-.984.39-1.602 1.16-1.661L4.287 6h15.428z" fill="url(#paint3_linear)"/><defs><linearGradient id="paint0_linear" x1="3" y1="16.547" x2="18.165" y2="5.173" gradientUnits="userSpaceOnUse"><stop stop-color="#FF444F"/><stop offset="1" stop-color="#FF6444"/></linearGradient><linearGradient id="paint1_linear" x1="9" y1="13.857" x2="13.973" y2="10.749" gradientUnits="userSpaceOnUse"><stop stop-color="#FF444F"/><stop offset="1" stop-color="#FF6444"/></linearGradient><linearGradient id="paint2_linear" x1="8.25" y1="4.959" x2="15.971" y2="2.853" gradientUnits="userSpaceOnUse"><stop stop-color="#FF444F"/><stop offset="1" stop-color="#FF6444"/></linearGradient><linearGradient id="paint3_linear" x1="3" y1="10.401" x2="18.8" y2="3.818" gradientUnits="userSpaceOnUse"><stop stop-color="#FF444F"/><stop offset="1" stop-color="#FF6444"/></linearGradient></defs></svg>
